X:2989
T:Soltrall
C:anon.
O:Norway
N:Alf Pr\oysen's lyrics to this song are still copyright protected
Z:Transcribed by Frank Nordberg - http://www.musicaviva.com
F:http://abc.musicaviva.com/tunes/norway/soltrall/soltrall-1.abc
M:3/4
L:1/8
K:C
z3/2 G/ "C"G>A|"C"G2 E>E "G7"D>B,|"C"C2 E>G G>A|"C"G2 E>E "G7"D>D|C2:|
z2z2|"G7"d2F3A|"C"A>G G>E C>E|"G7"G2 A>G F>B,|"C"C2|]
W:
W:
W:  From Musica Viva - http://www.musicaviva.com
W:  the Internet center for free sheet music downloads.

